flaticon/stationery/inbox.svg

<svg xmlns="http://www.w3.org/2000/svg" width="32" height="32" viewBox="0 0 24 24">
    <path d="M 18.222656 0 L 5.777344 0 L 0 14.082031 L 0 24 L 24 24 L 24 14.082031 Z M 6.46875 1.019531 L 17.53125 1.019531 L 22.734375 14.082031 L 17.28125 14.082031 L 16.136719 16.042969 L 7.863281 16.042969 L 6.71875 14.082031 L 1.265625 14.082031 Z M 22.980469 22.980469 L 1.019531 22.980469 L 1.019531 15.105469 L 6.132812 15.105469 L 7.28125 17.0625 L 16.71875 17.0625 L 17.867188 15.105469 L 22.980469 15.105469 Z M 22.980469 22.980469"/>
</svg>

<svg xmlns="http://www.w3.org/2000/svg" width="32" height="32" viewBox="0 0 24 24">
    <path d="M18.223 0H5.777L0 14.082V24h24v-9.918zM6.469 1.02H17.53l5.203 13.062h-5.453l-1.144 1.961H7.863L6.72 14.082H1.266zM22.98 22.98H1.02v-7.875h5.113l1.148 1.957h9.438l1.148-1.957h5.113zm0 0"/>
</svg>
